X: 1
T:N°8 Andante
T:3
C:Trad
O:Belgium
S:Manuscrit anonyme N°3, page 2
Z:ABC transcription Olivier VIENNE troubadourwallon@gmail.com
M:3/8
L:1/8
K:Dmaj
AAd|dAf|fda|agf|daf|eeg|ece|d3|
AAd|dAf|fda|agf|daf|eeg|ece|d3|
fff|e2d|dcB|ecA|faf|ece|dcB|A3|
AAd|dAf|fda|a>gf|gab|afd|dcd|e3|
gab|afd|gec|d3|]





